!!!COM: Kakoma, George Wilberforce
!!!CDT: b.1923
!!!OTL: National Anthem, Uganda
!!!ENC: Davis, Matthew J.
!!Vocal Line Only
**kern
*clefG2
*k[f#]
*G:
*M4/4
=1-
8.d
16d
=2
2b
8g
8d
8e
8g
=3
2b
4g
4g
=4
4.g
8g
8a
8g
8e
8e
=5
2.d
4d
=6
4.dd
8b
4g
4e
=7
4.ee
8dd
8cc
8a
8e
8g
=8
2.g
==|!
*-
